!!!COM: de Févin, Antoine
!!!CDT: ~1470//-~1511//
!!!OPR: Missa Ave Maria
!!!ONM: 3
!!!OTL: Credo
!!!AGN: Mass; Credo
!!!SCT: Fva1001c
!!!SCA: Fva1001c
!!!voices: 4
**kern	**text	**kern	**text	**kern	**text	**kern	**text
*staff4	*staff4	*staff3	*staff3	*staff2	*staff2	*staff1	*staff1
*Ivox	*	*Ivox	*	*Ivox	*	*Ivox	*
*I"Bassus	*	*I"Tenor	*	*I"Altus	*	*I"Superius	*
*I'B	*	*I'T	*	*I'A	*	*I'S	*
*>[A,B,C,D,E,F]	*>[A,B,C,D,E,F]	*>[A,B,C,D,E,F]	*>[A,B,C,D,E,F]	*>[A,B,C,D,E,F]	*>[A,B,C,D,E,F]	*>[A,B,C,D,E,F]	*>[A,B,C,D,E,F]
*>A	*>A	*>A	*>A	*>A	*>A	*>A	*>A
*clefF4	*	*clefGv2	*	*clefGv2	*	*clefG2	*
*k[]	*	*k[]	*	*k[]	*	*k[]	*
*M2/1	*	*M2/1	*	*M2/1	*	*M2/1	*
*met(C|)	*	*met(C|)	*	*met(C|)	*	*met(C|)	*
!!section: Patrem omnipotentem
!!!OMD: Patrem omnipotentem
=1-	=1-	=1-	=1-	=1-	=1-	=1-	=1-
0r	.	0r	.	1G	Pa-	0r	.
.	.	.	.	[1c	-trem	.	.
=2	=2	=2	=2	=2	=2	=2	=2
0r	.	0r	.	2c\]	.	0r	.
.	.	.	.	2c\	o-	.	.
.	.	.	.	1c	-mni-	.	.
=3	=3	=3	=3	=3	=3	=3	=3
0r	.	0r	.	1d	-po-	1r	.
.	.	.	.	1e	-ten-	1g	Pa-
=4	=4	=4	=4	=4	=4	=4	=4
0r	.	0r	.	1c	-tem,	1.cc	-trem
.	.	.	.	2r	.	.	.
.	.	.	.	2c\	fa-	2cc\	o-
=5	=5	=5	=5	=5	=5	=5	=5
0r	.	0r	.	1f	-cto-	1cc	-mni-
.	.	.	.	1f	-rem	1dd	-po-
=6	=6	=6	=6	=6	=6	=6	=6
0r	.	0r	.	2.e\	cae-	1ee	-ten-
.	.	.	.	4d\	.	.	.
.	.	.	.	2e\	.	1cc	-tem,
.	.	.	.	2f\	-li	.	.
=7	=7	=7	=7	=7	=7	=7	=7
0r	.	0r	.	2e\	et	2r	.
.	.	.	.	2.f\	ter-	2cc\	fa-
.	.	.	.	.	.	1ff	-cto-
.	.	.	.	4e\	.	.	.
.	.	.	.	4d\	.	.	.
.	.	.	.	4c\	.	.	.
=8	=8	=8	=8	=8	=8	=8	=8
0r	.	0r	.	1d	.	1ff	-rem
.	.	.	.	4c\	.	2.ee\	cae-
.	.	.	.	4d\	.	.	.
.	.	.	.	4e\	.	.	.
.	.	.	.	4f\	.	4dd\	.
=9	=9	=9	=9	=9	=9	=9	=9
0r	.	0r	.	2g\	.	2ee\	.
.	.	.	.	2a\	.	2ff\	-li
.	.	.	.	2g\	.	2ee\	et
.	.	.	.	[2a\	.	[2ff\	ter-
=10	=10	=10	=10	=10	=10	=10	=10
0r	.	0r	.	4a\]	.	4ff\]	.
.	.	.	.	4g\	.	4ee\	.
.	.	.	.	4f\	.	4dd\	.
.	.	.	.	4e\	.	4cc\	.
.	.	.	.	2.d\	.	2dd\	.
.	.	.	.	.	.	4cc\	.
.	.	.	.	4e\	.	4b\	.
=11	=11	=11	=11	=11	=11	=11	=11
0r	.	0r	.	1f	.	1a	.
.	.	.	.	1e	-rae,	[1g	-rae,
=12	=12	=12	=12	=12	=12	=12	=12
0r	.	0r	.	2r	.	1g]	.
.	.	.	.	2e\	vi-	.	.
.	.	.	.	2e\	-si-	2r	.
.	.	.	.	2e\	-bi-	2cc\	vi-
=13	=13	=13	=13	=13	=13	=13	=13
0r	.	0r	.	1g	-li-	2cc\	-si-
.	.	.	.	.	.	2cc\	-bi-
.	.	.	.	2g\	-um	1ee	-li-
.	.	.	.	[2d\	o-	.	.
=14	=14	=14	=14	=14	=14	=14	=14
0r	.	0r	.	2d\]	.	2ee\	-um
.	.	.	.	2d\	-mni-	1a	o-
.	.	.	.	2.f\	-um,	.	.
.	.	.	.	.	.	2a/	-mni-
.	.	.	.	8e\L	.	.	.
.	.	.	.	8d\J	.	.	.
=15	=15	=15	=15	=15	=15	=15	=15
0r	.	0r	.	1c	.	2cc\	-um,
.	.	.	.	.	.	4b\	.
.	.	.	.	.	.	4a/	.
.	.	.	.	2r	.	1g	.
.	.	.	.	2c\	et	.	.
=16	=16	=16	=16	=16	=16	=16	=16
0r	.	0r	.	2d\	in-	2r	.
.	.	.	.	2e\	-vi-	2g/	et
.	.	.	.	2f\	-si-	2a/	in-
.	.	.	.	2g\	.	2b\	-vi-
=17	=17	=17	=17	=17	=17	=17	=17
0r	.	0r	.	2a\	-bi-	2cc\	-si-
.	.	.	.	2f\	.	2dd\	.
.	.	.	.	2g\	.	2ee\	-bi-
.	.	.	.	[2a\	.	[2ff\	.
=18	=18	=18	=18	=18	=18	=18	=18
0r	.	0r	.	4a\]	.	4ff\]	.
.	.	.	.	4g\	.	4ee\	.
.	.	.	.	4f\	.	4dd\	.
.	.	.	.	4e\	.	4cc\	.
.	.	.	.	2f\	.	2dd\	.
.	.	.	.	[2g\	.	[2ee\	.
=19	=19	=19	=19	=19	=19	=19	=19
0r	.	0r	.	4g\]	.	4ee\]	.
.	.	.	.	4f\	.	4dd\	.
.	.	.	.	2e\	.	1cc	.
.	.	.	.	1d	-li-	.	.
.	.	.	.	.	.	2b\	-li-
=20	=20	=20	=20	=20	=20	=20	=20
1r	.	1r	.	0c	-um.	0cc	-um.
1C	Et	1c	Et	.	.	.	.
=21	=21	=21	=21	=21	=21	=21	=21
1E	in	1c	in	0r	.	0r	.
1F	u-	1d	u-	.	.	.	.
=22	=22	=22	=22	=22	=22	=22	=22
2G\	-num	2.e\	-num	0r	.	0r	.
2.A\	Do-	.	.	.	.	.	.
.	.	4d\	.	.	.	.	.
.	.	2e\	.	.	.	.	.
4G\	-mi-	.	.	.	.	.	.
[2A\	-num	[2f\	Do-	.	.	.	.
=23	=23	=23	=23	=23	=23	=23	=23
4A\]	.	4f\]	.	0r	.	0r	.
4G\	.	4e\	-mi-	.	.	.	.
4F\	.	1e	-num	.	.	.	.
4E\	.	.	.	.	.	.	.
1F	.	.	.	.	.	.	.
.	.	2d\	.	.	.	.	.
=24	=24	=24	=24	=24	=24	=24	=24
1E	.	0e	.	0r	.	0r	.
2r	.	.	.	.	.	.	.
[2A\	Ie-	.	.	.	.	.	.
=25	=25	=25	=25	=25	=25	=25	=25
2A\]	.	2r	.	0r	.	0r	.
2G\	-sum	1e	Ie-	.	.	.	.
2E\	Chri-	.	.	.	.	.	.
[2G\	.	2d\	-sum	.	.	.	.
=26	=26	=26	=26	=26	=26	=26	=26
2G\]	.	2B\	Chri-	0r	.	0r	.
4F\	.	1d	.	.	.	.	.
4E\	.	.	.	.	.	.	.
1D	-stum,	.	.	.	.	.	.
.	.	4c\	.	.	.	.	.
.	.	4B\	.	.	.	.	.
=27	=27	=27	=27	=27	=27	=27	=27
2r	.	1A	-stum,	0r	.	0r	.
2D\	Fi-	.	.	.	.	.	.
2E\	-li-	2r	.	.	.	.	.
2F\	-um	2A/	Fi-	.	.	.	.
=28	=28	=28	=28	=28	=28	=28	=28
1.G	De-	2B\	-li-	0r	.	0r	.
.	.	2c\	-um	.	.	.	.
.	.	[1d	De-	.	.	.	.
4F\	.	.	.	.	.	.	.
4E\	.	.	.	.	.	.	.
=29	=29	=29	=29	=29	=29	=29	=29
2F\	.	2d\]	.	0r	.	0r	.
2G\	-i	4c\	.	.	.	.	.
.	.	4B\	.	.	.	.	.
2A\	u-	2c\	.	.	.	.	.
[2B\	-ni-	[2d\	.	.	.	.	.
=30	=30	=30	=30	=30	=30	=30	=30
4B\]	.	4d\]	.	0r	.	0r	.
4A\	.	4c\	.	.	.	.	.
1G	-ge-	2B\	.	.	.	.	.
.	.	1A	-i	.	.	.	.
2F#i\	-ni-	.	.	.	.	.	.
=31	=31	=31	=31	=31	=31	=31	=31
0G	-tum,	2r	.	0r	.	0r	.
.	.	2.G/	u-	.	.	.	.
.	.	4A/	.	.	.	.	.
.	.	4B\	.	.	.	.	.
.	.	4c\	.	.	.	.	.
=32	=32	=32	=32	=32	=32	=32	=32
2r	.	2d\	.	0r	.	0r	.
2.C/	[u-	1e	-ni-	.	.	.	.
4D\	.	.	.	.	.	.	.
4E\	.	4d\	.	.	.	.	.
4F\	.	4c\	.	.	.	.	.
=33	=33	=33	=33	=33	=33	=33	=33
1G	.	2B\	.	0r	.	0r	.
.	.	1e	-ge-	.	.	.	.
2E\	-ni-	.	.	.	.	.	.
[2F\	-ge-	[2d\	.	.	.	.	.
=34	=34	=34	=34	=34	=34	=34	=34
4F\]	.	4d\]	.	0r	.	0r	.
4E\	.	4c\	.	.	.	.	.
4D\	.	1c	.	.	.	.	.
4C/	.	.	.	.	.	.	.
1D	-ni-	.	.	.	.	.	.
.	.	2B\	-ni-	.	.	.	.
=35	=35	=35	=35	=35	=35	=35	=35
0C	-tum.]	0c	-tum.	1G	Et	1r	.
.	.	.	.	[1c	ex	1g	Et
=36	=36	=36	=36	=36	=36	=36	=36
0r	.	0r	.	2c\]	.	0cc	ex
.	.	.	.	2d\	.	.	.
.	.	.	.	2e\	Pa-	.	.
.	.	.	.	[2f\	.	.	.
=37	=37	=37	=37	=37	=37	=37	=37
0r	.	1r	.	4f\]	.	1cc	Pa-
.	.	.	.	4e\	.	.	.
.	.	.	.	4d\	.	.	.
.	.	.	.	4c\	.	.	.
.	.	1G	Et	1B	-tre	1dd	-tre
=38	=38	=38	=38	=38	=38	=38	=38
0r	.	0c	ex	2r	.	1.ee	na-
.	.	.	.	2.c\	na-	.	.
.	.	.	.	4d\	.	.	.
.	.	.	.	[2e\	.	2dd\	.
=39	=39	=39	=39	=39	=39	=39	=39
0r	.	1c	Pa-	4e\]	.	2cc\	.
.	.	.	.	4d\	.	.	.
.	.	.	.	1g	.	2b\	.
.	.	1d	-tre	.	.	1a	.
.	.	.	.	2f#i\	.	.	.
=40	=40	=40	=40	=40	=40	=40	=40
1C	An-	1e	na-	1g	-tum	2g/	.
.	.	.	.	.	.	2.cc\	.
[1F	-te	1c	-tum	1r	.	.	.
.	.	.	.	.	.	4b\	.
.	.	.	.	.	.	4a/	.
.	.	.	.	.	.	4g/	.
=41	=41	=41	=41	=41	=41	=41	=41
1F]	.	2r	.	0r	.	2.a/	.
.	.	2.f\	an-	.	.	.	.
.	.	.	.	.	.	4g/	.
1F	o-	.	.	.	.	4a/	.
.	.	4e\	.	.	.	4g/	.
.	.	4d\	.	.	.	4f/	.
.	.	4c\	.	.	.	4e/	.
=42	=42	=42	=42	=42	=42	=42	=42
1G	-mni-	4B\	.	1G	an-	1d	-tum.
.	.	4c\	.	.	.	.	.
.	.	4d\	.	.	.	.	.
.	.	4B\	.	.	.	.	.
1A	-a	1c	.	[1c	-te	1r	.
=43	=43	=43	=43	=43	=43	=43	=43
2F\	sae-	2A/	-te	1c]	.	0r	.
2.A\	.	1c	o-	.	.	.	.
.	.	.	.	1c	o-	.	.
4G\	.	.	.	.	.	.	.
[2c\	.	4B\	.	.	.	.	.
.	.	4A/	.	.	.	.	.
=44	=44	=44	=44	=44	=44	=44	=44
2c\]	.	1G	-mni-	1d	-mni-	0r	.
2B\	-cu-	.	.	.	.	.	.
1c	-la.	2.g\	-a	1e	-a	.	.
.	.	4f\	.	.	.	.	.
=45	=45	=45	=45	=45	=45	=45	=45
2r	.	4e\	.	2c\	sae-	0r	.
.	.	4d\	.	.	.	.	.
2C/	De-	2.e\	sae-	2.g\	.	.	.
2G\	-um	.	.	.	.	.	.
.	.	4d\	.	4f\	.	.	.
2G\	de	2B\	.	[2e\	.	.	.
=46	=46	=46	=46	=46	=46	=46	=46
1A	De-	1c	-cu-	2e\]	.	1r	.
.	.	.	.	4d\	-cu-	.	.
.	.	.	.	4c\	.	.	.
[1G	-o,	1d	-la.	[1B	-la.	2r	.
.	.	.	.	.	.	2g/	De-
=47	=47	=47	=47	=47	=47	=47	=47
1G]	.	2G/	Lu-	1B]	.	2dd\	-um
.	.	2.d\	-men	.	.	2dd\	de
2r	.	.	.	1r	.	1ee	De-
.	.	4c\	de	.	.	.	.
2C/	lu-	[2c\	lu-	.	.	.	.
=48	=48	=48	=48	=48	=48	=48	=48
1G	-men	2c\]	.	1r	.	1dd	-o,
.	.	2B\	-mi-	.	.	.	.
1A	de	1c	-ne,	2r	.	1r	.
.	.	.	.	2c\	Lu-	.	.
=49	=49	=49	=49	=49	=49	=49	=49
2G\	lu-	2r	.	1g	-men	0r	.
2E\	.	2G/	[De-	.	.	.	.
1F	-mi-	1d	-um	1a	de	.	.
=50	=50	=50	=50	=50	=50	=50	=50
1E	-ne,	1e	.	2g\	lu-	2r	.
.	.	.	.	2e\	.	2g/	lu-
1r	.	2d\	ve-	1f	-mi-	1dd	-men
.	.	2B\	.	.	.	.	.
=51	=51	=51	=51	=51	=51	=51	=51
2r	.	1c	.	1e	-ne,	1ee	de
2C/	De-	.	.	.	.	.	.
1G	-um	1B	-rum]	2r	.	2dd\	lu-
.	.	.	.	2g\	De-	2b\	.
=52	=52	=52	=52	=52	=52	=52	=52
1A	.	0r	.	2e\	.	1cc	-mi-
.	.	.	.	2f\	.	.	.
[1G	ve-	.	.	2.g\	.	1b	-ne,
.	.	.	.	4f\	.	.	.
=53	=53	=53	=53	=53	=53	=53	=53
2G\]	.	0r	.	2e\	.	1r	.
2F\	.	.	.	1d	.	.	.
2E\	.	.	.	.	.	2r	.
4D\	.	.	.	2c\	-um	2g/	De-
4C/	.	.	.	.	.	.	.
=54	=54	=54	=54	=54	=54	=54	=54
1D	.	1r	.	2c\	ve-	1dd	-um
.	.	.	.	2B\	.	.	.
1C	-rum	2r	.	2c\	.	1ee	ve-
.	.	2c\	de	[2g\	.	.	.
=55	=55	=55	=55	=55	=55	=55	=55
2r	.	1g	De-	4g\]	.	2dd\	-rum
.	.	.	.	4f\	.	.	.
1G	de	.	.	2d\	.	2b\	de
.	.	1a	-o	2e\	.	1cc	De-
2F\	.	.	.	2f\	.	.	.
=56	=56	=56	=56	=56	=56	=56	=56
2.G\	De-	1.g	ve-	1d	-rum	2.b\	-o
4F\	.	.	.	.	.	4a/	.
2E\	.	.	.	2r	.	4b\	.
.	.	.	.	.	.	4cc\	.
2D\	-o	2f\	.	2d\	de	[2dd\	.
=57	=57	=57	=57	=57	=57	=57	=57
2G\	ve-	2e\	.	2e\	De-	2dd\]	.
2A\	.	4d\	.	2f\	-o	1cc	ve-
.	.	4c\	.	.	.	.	.
1G	.	1d	.	1g	ve-	.	.
.	.	.	.	.	.	2b\	.
=58	=58	=58	=58	=58	=58	=58	=58
[0C	-ro.	[0c	-ro.	0e	-ro.	1cc	-ro.
.	.	.	.	.	.	2r	.
.	.	.	.	.	.	2ee\	Ge-
=59	=59	=59	=59	=59	=59	=59	=59
0C]	.	0c]	.	2r	.	2ee\	-ni-
.	.	.	.	2g\	Ge-	2ee\	-tum,
.	.	.	.	2g\	-ni-	[1ee	non
.	.	.	.	2g\	-tum,	.	.
=60	=60	=60	=60	=60	=60	=60	=60
0r	.	0r	.	2g\	non	2ee\]	.
.	.	.	.	4f\	fa-	4dd\	fa-
.	.	.	.	4e\	.	4cc\	.
.	.	.	.	4f\	.	4dd\	.
.	.	.	.	4g\	.	4ee\	.
.	.	.	.	[2a\	.	[2ff\	.
=61	=61	=61	=61	=61	=61	=61	=61
0r	.	0r	.	4a\]	.	4ff\]	.
.	.	.	.	4g\	.	4ee\	.
.	.	.	.	4f\	.	1ee	.
.	.	.	.	4e\	.	.	.
.	.	.	.	1f	.	.	.
.	.	.	.	.	.	2dd\	.
=62	=62	=62	=62	=62	=62	=62	=62
0r	.	0r	.	0e	-ctum,	1ee	-ctum,
.	.	.	.	.	.	2r	.
.	.	.	.	.	.	2ee\	con-
=63	=63	=63	=63	=63	=63	=63	=63
0r	.	0r	.	2r	.	2dd\	-sub-
.	.	.	.	2g\	con-	2ee\	-stan-
.	.	.	.	2f\	-sub-	2ff\	-ti-
.	.	.	.	2g\	-stan-	[2ee\	-a-
=64	=64	=64	=64	=64	=64	=64	=64
0r	.	0r	.	2a\	-ti-	4ee\]	.
.	.	.	.	.	.	4cc\	.
.	.	.	.	2.g\	-a-	2dd\	-lem
.	.	.	.	.	.	2.ee\	Pa-
.	.	.	.	4e\	.	.	.
.	.	.	.	2f\	-lem	.	.
.	.	.	.	.	.	4dd\	.
=65	=65	=65	=65	=65	=65	=65	=65
0r	.	0r	.	2g\	Pa-	2b\	.
.	.	.	.	4f\	.	2cc\	.
.	.	.	.	4e\	.	.	.
.	.	.	.	4d\	.	[1dd	.
.	.	.	.	4c\	.	.	.
.	.	.	.	4B\	.	.	.
.	.	.	.	4A/	.	.	.
=66	=66	=66	=66	=66	=66	=66	=66
0r	.	0r	.	2G/	.	2dd\]	.
.	.	.	.	2d\	.	4cc\	.
.	.	.	.	.	.	4b\	.
.	.	.	.	2e\	.	1cc	.
.	.	.	.	2f\	.	.	.
=67	=67	=67	=67	=67	=67	=67	=67
0r	.	0r	.	2.g\	.	2b\	.
.	.	.	.	.	.	1dd	.
.	.	.	.	4f\	.	.	.
.	.	.	.	2d\	.	.	.
.	.	.	.	[2a\	.	[2cc\	.
=68	=68	=68	=68	=68	=68	=68	=68
0r	.	0r	.	4a\]	.	4cc\]	.
.	.	.	.	4g\	.	4b\	.
.	.	.	.	1g	.	4a/	.
.	.	.	.	.	.	4g/	.
.	.	.	.	.	.	1a	.
.	.	.	.	2f#i\	.	.	.
=69	=69	=69	=69	=69	=69	=69	=69
1C	Per	1e	Per	1g	-tri.	1g	-tri.
[1G	quem	1e	quem	1r	.	1r	.
=70	=70	=70	=70	=70	=70	=70	=70
2G\]	.	1d	o-	0r	.	0r	.
1F	o-	.	.	.	.	.	.
.	.	1f	-mni-	.	.	.	.
4E\	.	.	.	.	.	.	.
4D\	.	.	.	.	.	.	.
=71	=71	=71	=71	=71	=71	=71	=71
1C	.	1e	-a	0r	.	0r	.
2.G\	-mni-	2.d\	fa-	.	.	.	.
4A\	.	4c\	.	.	.	.	.
=72	=72	=72	=72	=72	=72	=72	=72
2B\	.	2d\	.	0r	.	0r	.
2c\	-a	1e	.	.	.	.	.
1A	fa-	.	.	.	.	.	.
.	.	4d\	.	.	.	.	.
.	.	4c\	.	.	.	.	.
=73	=73	=73	=73	=73	=73	=73	=73
2G\	.	4B\	.	0r	.	0r	.
.	.	4c\	.	.	.	.	.
4F\	.	4d\	.	.	.	.	.
4E\	.	4e\	.	.	.	.	.
4F\	.	2d\	.	.	.	.	.
4E\	.	.	.	.	.	.	.
4D\	.	[2c\	.	.	.	.	.
4C/	.	.	.	.	.	.	.
=74	=74	=74	=74	=74	=74	=74	=74
1D	-cta	2c\]	.	0r	.	0r	.
.	.	2B\	-cta	.	.	.	.
1C	sunt.	1c	sunt.	.	.	.	.
=75	=75	=75	=75	=75	=75	=75	=75
2r	.	2r	.	2r	.	2r	.
1C	Qui	1c	Qui	1g	Qui	1ee	Qui
2C/	pro-	2c\	pro-	2g\	pro-	2ee\	pro-
=76	=76	=76	=76	=76	=76	=76	=76
1F	-pter	1c	-pter	1a	-pter	1ff	-pter
1G	nos	1B	nos	1g	nos	2dd\	nos
.	.	.	.	.	.	[2ee\	ho-
=77	=77	=77	=77	=77	=77	=77	=77
1.A	ho-	1.c	ho-	1.e	ho-	4ee\]	.
.	.	.	.	.	.	4dd\	.
.	.	.	.	.	.	4cc\	.
.	.	.	.	.	.	4b\	.
.	.	.	.	.	.	2cc\	.
2A\	-mi-	2c\	-mi-	2f\	-mi-	2cc\	-mi-
=78	=78	=78	=78	=78	=78	=78	=78
1G	-nes,	1d	-nes,	1g	-nes,	0b	-nes,
1G	.	2r	.	2r	.	.	.
.	.	2d\	et	2g\	et	.	.
=79	=79	=79	=79	=79	=79	=79	=79
2r	.	2e\	pro-	2g\	pro-	2r	.
2c\	et	2c\	-pter	2g\	-pter	2ee\	et
2c\	pro-	1e	no-	1a	no-	2ee\	pro-
2c\	-pter	.	.	.	.	2ee\	-pter
=80	=80	=80	=80	=80	=80	=80	=80
1d	no-	1.d	-stram	1f	-stram	1ff	no-
2B\	-stram	.	.	1g	sa-	2dd\	-stram
[2c\	sa-	2c\	sa-	.	.	[2ee\	sa-
=81	=81	=81	=81	=81	=81	=81	=81
4c\]	.	1g	-lu-	1.e	-lu-	4ee\]	.
4B\	.	.	.	.	.	4dd\	.
4A\	.	.	.	.	.	4cc\	.
4G\	.	.	.	.	.	4b\	.
1A	-lu-	1c	-tem	.	.	1cc	-lu-
.	.	.	.	2f\	.	.	.
=82	=82	=82	=82	=82	=82	=82	=82
1G	-tem	0r	.	0g	-tem	1b	-tem
1C	.	.	.	.	.	2r	.
.	.	.	.	.	.	[2ee\	[de-
=83	=83	=83	=83	=83	=83	=83	=83
0r	.	0r	.	2r	.	2ee\]	.
.	.	.	.	1g	de-	2dd\	.
.	.	.	.	.	.	2b\	-scen-
.	.	.	.	2f\	.	2cc\	.
=84	=84	=84	=84	=84	=84	=84	=84
0r	.	0r	.	2d\	-scen-	2dd\	-dit
.	.	.	.	2e\	.	2g/	de
.	.	.	.	2f\	-dit	2a/	cae-
.	.	.	.	2g\	de	2b\	.
=85	=85	=85	=85	=85	=85	=85	=85
0r	.	0r	.	1c	cae-	4a/	.
.	.	.	.	.	.	4g/	.
.	.	.	.	.	.	1cc	.
.	.	.	.	1d	.	.	.
.	.	.	.	.	.	2b\	.
=86	=86	=86	=86	=86	=86	=86	=86
1r	.	2r	.	1c	-lis,	1cc	-lis,]
.	.	1e	de-	.	.	.	.
2r	.	.	.	1r	.	1r	.
[2G\	de-	2d\	.	.	.	.	.
=87	=87	=87	=87	=87	=87	=87	=87
2G\]	.	2B\	-scen-	0r	.	0r	.
2F\	.	2c\	.	.	.	.	.
2D\	-scen-	2d\	-dit	.	.	.	.
2E\	.	2G/	de	.	.	.	.
=88	=88	=88	=88	=88	=88	=88	=88
2F\	-dit	2.A/	cae-	0r	.	0r	.
2G\	de	.	.	.	.	.	.
.	.	4B\	.	.	.	.	.
1C	cae-	4A/	.	.	.	.	.
.	.	4G/	.	.	.	.	.
.	.	[2c\	.	.	.	.	.
=89	=89	=89	=89	=89	=89	=89	=89
1D	.	2c\]	.	1r	.	1r	.
.	.	2B\	.	.	.	.	.
2C/	-lis,	2.c\	-lis,	2r	.	2r	.
[2c\	[de-	.	.	2A/	de-	[2ee\	de-
.	.	4d\	.	.	.	.	.
=90	=90	=90	=90	=90	=90	=90	=90
2c\]	.	4e\	.	2c\	-scen-	2ee\]	.
.	.	4f\	.	.	.	.	.
2B\	.	1g	[de-	2d\	.	2dd\	.
2G\	-scen-	.	.	2e\	.	2b\	-scen-
2A\	.	2f\	.	2c\	.	2cc\	.
=91	=91	=91	=91	=91	=91	=91	=91
2B\	-dit	2d\	-scen-	1g	-dit	2dd\	-dit
2c\	de	2e\	.	.	.	2g/	de
2A\	cae-	2f\	-dit	1r	.	2a/	cae-
2G\	.	2g\	.	.	.	2b\	.
=92	=92	=92	=92	=92	=92	=92	=92
1A	.	1c	de	2r	.	4a/	.
.	.	.	.	.	.	4g/	.
.	.	.	.	1a	de	1cc	.
2F\	.	1d	cae-	.	.	.	.
2G\	.	.	.	2g\	.	2b\	.
=93	=93	=93	=93	=93	=93	=93	=93
2.C/	.	[0cl	-lis.]	2.e\	cae-	[0ccl	-lis.
4D\	.	.	.	4f\	.	.	.
2E\	.	.	.	2g\	.	.	.
2C/	.	.	.	2e\	.	.	.
=94	=94	=94	=94	=94	=94	=94	=94
0F	.	0c_	.	2f\	.	0cc_	.
.	.	.	.	2g\	.	.	.
.	.	.	.	1a	.	.	.
=95	=95	=95	=95	=95	=95	=95	=95
0Cl	-lis.]	0c]	.	0gl	-lis.	0cc]	.
!!LO:LB:i:g=z
=||	=||	=||	=||	=||	=||	=||	=||
*>B	*>B	*>B	*>B	*>B	*>B	*>B	*>B
*clefF4	*	*clefGv2	*	*clefGv2	*	*clefG2	*
*k[]	*	*k[]	*	*k[]	*	*k[]	*
*M2/1	*	*M2/1	*	*M2/1	*	*M2/1	*
*met(C|)	*	*met(C|)	*	*met(C|)	*	*met(C|)	*
!!section: Et incarnatus est
!!!OMD: Et incarnatus est
0r	.	0r	.	1r	.	1g	Et
.	.	.	.	1c	Et	[1cc	in-
=96	=96	=96	=96	=96	=96	=96	=96
0r	.	0r	.	1.f	in-	2cc\]	.
.	.	.	.	.	.	2b\	-car-
.	.	.	.	.	.	1cc	-na-
.	.	.	.	2e\	-car-	.	.
=97	=97	=97	=97	=97	=97	=97	=97
0r	.	1r	.	1f	-na-	1dd	-tus
.	.	1G	Et	1g	-tus	1b	est
=98	=98	=98	=98	=98	=98	=98	=98
1C	Et	1.c	in-	1e	est	0r	.
[1F	in-	.	.	1r	.	.	.
.	.	2B\	-car-	.	.	.	.
=99	=99	=99	=99	=99	=99	=99	=99
2F\]	.	1c	-na-	0r	.	0r	.
2E\	-car-	.	.	.	.	.	.
1F	-na-	1d	-tus	.	.	.	.
=100	=100	=100	=100	=100	=100	=100	=100
1G	-tus	1B	est	0r	.	1r	.
1E	est	1r	.	.	.	1g	de
=101	=101	=101	=101	=101	=101	=101	=101
0r	.	0r	.	1c	de	1.cc	Spi-
.	.	.	.	[1f	Spi-	.	.
.	.	.	.	.	.	2b\	-ri-
=102	=102	=102	=102	=102	=102	=102	=102
0r	.	0r	.	2f\]	.	1cc	-tu
.	.	.	.	2e\	-ri-	.	.
.	.	.	.	1f	-tu	[1dd	San-
=103	=103	=103	=103	=103	=103	=103	=103
0r	.	1r	.	1.g	San-	2dd\]	.
.	.	.	.	.	.	1b	.
.	.	1G	de	.	.	.	.
.	.	.	.	[2e\	.	4a/	.
.	.	.	.	.	.	4g/	.
=104	=104	=104	=104	=104	=104	=104	=104
1C	ex	1.c	Spi-	2e\]	.	1g	-cto:
.	.	.	.	4d\	.	.	.
.	.	.	.	4c\	.	.	.
[1F	Ma-	.	.	1c	-cto:	1r	.
.	.	2B\	-ri-	.	.	.	.
=105	=105	=105	=105	=105	=105	=105	=105
2F\]	.	1c	-tu	0r	.	0r	.
2E\	-ri-	.	.	.	.	.	.
1F	-a	[1d	San-	.	.	.	.
=106	=106	=106	=106	=106	=106	=106	=106
1.G	Vir-	2d\]	.	0r	.	0r	.
.	.	1B	.	.	.	.	.
[2E\	.	4A/	.	.	.	.	.
.	.	4G/	.	.	.	.	.
=107	=107	=107	=107	=107	=107	=107	=107
2E\]	.	2.G/	-cto	0r	.	0r	.
4D\	.	.	.	.	.	.	.
4C/	.	4F/	ex	.	.	.	.
2.C/	.	2G/	Ma-	.	.	.	.
.	.	2A/	-ri-	.	.	.	.
4D\	.	.	.	.	.	.	.
=108	=108	=108	=108	=108	=108	=108	=108
2E\	.	2G/	-a	0r	.	1r	.
2F\	.	1c	Vir-	.	.	.	.
1D	-gi-	.	.	.	.	1dd	Et
.	.	2B\	-gi-	.	.	.	.
=109	=109	=109	=109	=109	=109	=109	=109
0C	-ne:	0c	-ne:	1r	.	1.ee	ho-
.	.	.	.	1g	Et	.	.
.	.	.	.	.	.	2dd\	-mo
=110	=110	=110	=110	=110	=110	=110	=110
0r	.	1r	.	1a	ho-	2cc\	fa-
.	.	.	.	.	.	2b\	.
.	.	1d	Et	1f	-mo	1a	.
=111	=111	=111	=111	=111	=111	=111	=111
1r	.	1.e	ho-	1g	fa-	0g	.
1G	Et	.	.	[1e	.	.	.
.	.	2d\	-mo	.	.	.	.
=112	=112	=112	=112	=112	=112	=112	=112
1.A	ho-	2c\	fa-	2e\]	.	1.cc	.
.	.	2B\	.	1f	.	.	.
.	.	[1A	.	.	.	.	.
2G\	-mo	.	.	2e\	.	4dd\	.
.	.	.	.	.	.	4cc\	.
=113	=113	=113	=113	=113	=113	=113	=113
2F\	fa-	2A/]	.	2d\	.	2dd\	.
2E\	.	1G	.	1c	.	2ee\	.
1D	.	.	.	.	.	2ff\	.
.	.	2F/	-ctus	2B\	-ctus	2dd\	.
=114	=114	=114	=114	=114	=114	=114	=114
0C	-ctus	1G	est,	0c	est,	1.ee	.
.	.	2r	.	.	.	.	.
.	.	2g\	[Et	.	.	2dd\	.
=115	=115	=115	=115	=115	=115	=115	=115
2.F\	est.	1a	ho-	1r	.	2.cc\	.
4G\	.	.	.	.	.	4b\	.
1A	.	1f	-mo	1c	[fa-	1cc	-ctus
=116	=116	=116	=116	=116	=116	=116	=116
[0Gl	.	1.g	fa-	1.d	-ctus	[0bl	est.
.	.	2f\	.	4e\	.	.	.
.	.	.	.	4f\	.	.	.
=117	=117	=117	=117	=117	=117	=117	=117
0G_	.	2.e\	.	[0gl	est.]	0b_	.
.	.	4d\	.	.	.	.	.
.	.	1e	-ctus	.	.	.	.
=118	=118	=118	=118	=118	=118	=118	=118
0G]	.	0dl	est.]	0g]	.	0b]	.
!!LO:LB:i:g=z
=||	=||	=||	=||	=||	=||	=||	=||
*>C	*>C	*>C	*>C	*>C	*>C	*>C	*>C
*clefF4	*	*clefGv2	*	*clefGv2	*	*clefG2	*
*k[]	*	*k[]	*	*k[]	*	*k[]	*
*M2/1	*	*M2/1	*	*M2/1	*	*M2/1	*
*met(C|)	*	*met(C|)	*	*met(C|)	*	*met(C|)	*
!!section: Crucifixus
!!!OMD: Crucifixus
0r	.	0G	Cru-	0r	.	0r	.
=119	=119	=119	=119	=119	=119	=119	=119
0r	.	1c	-ci-	0r	.	0r	.
.	.	1d	-fi-	.	.	.	.
=120	=120	=120	=120	=120	=120	=120	=120
0C	Cru-	1e	-xus	0r	.	0r	.
.	.	2c\	e-	.	.	.	.
.	.	[2g\	-ti-	.	.	.	.
=121	=121	=121	=121	=121	=121	=121	=121
1G	-ci-	4g\]	.	0r	.	0r	.
.	.	4f\	.	.	.	.	.
.	.	1e	-am	.	.	.	.
1A	-fi-	.	.	.	.	.	.
.	.	4d\	.	.	.	.	.
.	.	4c\	.	.	.	.	.
=122	=122	=122	=122	=122	=122	=122	=122
1.B	-xus	2.d\	pro	0r	.	0r	.
.	.	4G/	.	.	.	.	.
.	.	2G/	.	.	.	.	.
2B\	e-	[2d\	no-	.	.	.	.
=123	=123	=123	=123	=123	=123	=123	=123
1B	-ti-	2d\]	.	0r	.	0r	.
.	.	4c\	.	.	.	.	.
.	.	4B\	.	.	.	.	.
1c	-am	1A	.	.	.	.	.
=124	=124	=124	=124	=124	=124	=124	=124
2.d\	pro	1G	-bis:	0r	.	0r	.
4G\	.	.	.	.	.	.	.
2G\	.	2r	.	.	.	.	.
[2d\	no-	2G/	sub	.	.	.	.
=125	=125	=125	=125	=125	=125	=125	=125
2d\]	.	1B	Pon-	0r	.	0r	.
4c\	.	.	.	.	.	.	.
4B\	.	.	.	.	.	.	.
1A	.	1c	-ti-	.	.	.	.
=126	=126	=126	=126	=126	=126	=126	=126
1G	-bis:	2.d\	-o	0r	.	0r	.
.	.	4c\	.	.	.	.	.
2r	.	2d\	.	.	.	.	.
2G\	sub	[2e\	.	.	.	.	.
=127	=127	=127	=127	=127	=127	=127	=127
1A	Pon-	2e\]	.	0r	.	0r	.
.	.	4d\	.	.	.	.	.
.	.	4c\	.	.	.	.	.
1B	-ti-	1d	.	.	.	.	.
=128	=128	=128	=128	=128	=128	=128	=128
1c	-o	2r	.	0r	.	0r	.
.	.	2.c\	Pi-	.	.	.	.
2r	.	.	.	.	.	.	.
.	.	4d\	.	.	.	.	.
[2C/	Pi-	4e\	.	.	.	.	.
.	.	4f\	.	.	.	.	.
=129	=129	=129	=129	=129	=129	=129	=129
4C/]	.	2g\	.	0r	.	0r	.
4D\	.	.	.	.	.	.	.
4E\	.	4G/	.	.	.	.	.
4F\	.	4A/	.	.	.	.	.
4G\	.	4B\	.	.	.	.	.
4A\	.	4c\	.	.	.	.	.
4B\	.	4d\	.	.	.	.	.
4G\	.	4e\	.	.	.	.	.
=130	=130	=130	=130	=130	=130	=130	=130
2A\	.	2f\	.	0r	.	0r	.
2B\	.	2.g\	-la-	.	.	.	.
2.c\	-la-	.	.	.	.	.	.
.	.	4f\	.	.	.	.	.
.	.	4e\	.	.	.	.	.
4B\	.	4d\	.	.	.	.	.
=131	=131	=131	=131	=131	=131	=131	=131
4A\	.	4c\	.	0r	.	0r	.
4G\	.	4B\	.	.	.	.	.
4F\	.	4A/	.	.	.	.	.
4E\	.	4G/	.	.	.	.	.
2D\	.	4A/	.	.	.	.	.
.	.	4B\	.	.	.	.	.
2A\	.	4c\	.	.	.	.	.
.	.	4d\	.	.	.	.	.
=132	=132	=132	=132	=132	=132	=132	=132
2G\	.	4e\	.	0r	.	0r	.
.	.	4d\	.	.	.	.	.
2.A\	.	2.f\	.	.	.	.	.
4G\	.	4e\	.	.	.	.	.
4F\	.	[2e\	.	.	.	.	.
4E\	.	.	.	.	.	.	.
=133	=133	=133	=133	=133	=133	=133	=133
1F	.	2e\]	.	0r	.	0r	.
.	.	2d\	.	.	.	.	.
1E	-to	1e	-to	.	.	.	.
=134	=134	=134	=134	=134	=134	=134	=134
2r	.	2r	.	2r	.	2r	.
1C	pas-	1e	pas-	1g	Pas-	1ee	Pas-
2C/	-sus,	2e\	-sus,	2g\	-sus,	2ee\	-sus,
=135	=135	=135	=135	=135	=135	=135	=135
1.F	et	1.c	et	1.a	et	1.ff	et
2F\	se-	2c\	se-	2a\	se-	2ee\	se-
=136	=136	=136	=136	=136	=136	=136	=136
1F	-pul-	1f	-pul-	1a	-pul-	1dd	-pul-
1F	-tus	1f	-tus	1a	-tus	1cc	-tus
=137	=137	=137	=137	=137	=137	=137	=137
1.G	est.	1d	est.	2.g\	est.	0bl	est.
.	.	.	.	4f\	.	.	.
.	.	[1g	.	2e\	.	.	.
2F\	.	.	.	2d\	.	.	.
=138	=138	=138	=138	=138	=138	=138	=138
2E\	.	2g\]	.	2.e\	.	0r	.
2D\	.	2f\	.	.	.	.	.
.	.	.	.	4f\	.	.	.
2.E\	.	2.e\	.	[1gl	.	.	.
4F\	.	4d\	.	.	.	.	.
=139	=139	=139	=139	=139	=139	=139	=139
0Gl	.	0dl	.	0g]	.	0r	.
!!LO:LB:i:g=z
=||	=||	=||	=||	=||	=||	=||	=||
*>D	*>D	*>D	*>D	*>D	*>D	*>D	*>D
*clefF4	*	*clefGv2	*	*clefGv2	*	*clefG2	*
*k[]	*	*k[]	*	*k[]	*	*k[]	*
*M2/1	*	*M2/1	*	*M2/1	*	*M2/1	*
*met(C|)	*	*met(C|)	*	*met(C|)	*	*met(C|)	*
!!section: Et resurrexit
!!!OMD: Et resurrexit
0r	.	0r	.	0r	.	0dd	Et
=140	=140	=140	=140	=140	=140	=140	=140
0r	.	0r	.	0r	.	1dd	re-
.	.	.	.	.	.	1cc	-sur-
=141	=141	=141	=141	=141	=141	=141	=141
1r	.	0r	.	0g	Et	2.b\	-re-
.	.	.	.	.	.	4cc\	.
1r	.	.	.	.	.	4dd\	.
.	.	.	.	.	.	4ee\	.
.	.	.	.	.	.	[2dd\	.
=142	=142	=142	=142	=142	=142	=142	=142
0r	.	0r	.	1g	re-	2dd\]	.
.	.	.	.	.	.	4cc\	.
.	.	.	.	.	.	4b\	.
.	.	.	.	1f	-sur-	1a	.
=143	=143	=143	=143	=143	=143	=143	=143
0r	.	0r	.	2.e\	-re-	0g	-xit
.	.	.	.	4f\	.	.	.
.	.	.	.	4g\	.	.	.
.	.	.	.	4a\	.	.	.
.	.	.	.	[2g\	.	.	.
=144	=144	=144	=144	=144	=144	=144	=144
0r	.	0r	.	2g\]	.	2r	.
.	.	.	.	4f\	.	2g/	ter-
.	.	.	.	4e\	.	.	.
.	.	.	.	1d	.	2a/	-ti-
.	.	.	.	.	.	2b\	-a
=145	=145	=145	=145	=145	=145	=145	=145
0r	.	0r	.	1c	-xit	1.cc	di-
.	.	.	.	2r	.	.	.
.	.	.	.	2c\	ter-	4b\	.
.	.	.	.	.	.	4a/	.
=146	=146	=146	=146	=146	=146	=146	=146
0r	.	0r	.	2d\	-ti-	2b\	.
.	.	.	.	2e\	-a	2cc\	.
.	.	.	.	[1f	di-	[1dd	.
=147	=147	=147	=147	=147	=147	=147	=147
0r	.	0r	.	2f\]	.	2dd\]	.
.	.	.	.	4e\	.	4cc\	.
.	.	.	.	4d\	.	4b\	.
.	.	.	.	2e\	.	2cc\	.
.	.	.	.	2f\	.	2dd\	.
=148	=148	=148	=148	=148	=148	=148	=148
0r	.	0r	.	2g\	.	2ee\	.
.	.	.	.	2a\	.	2.ff\	.
.	.	.	.	1d	.	.	.
.	.	.	.	.	.	4ee\	.
.	.	.	.	.	.	[2dd\	.
=149	=149	=149	=149	=149	=149	=149	=149
0r	.	0r	.	1e	.	2dd\]	.
.	.	.	.	.	.	2cc#i\	.
.	.	.	.	1d	-e,	[1dd	-e,
=150	=150	=150	=150	=150	=150	=150	=150
0r	.	0r	.	2r	.	1dd]	.
.	.	.	.	2g\	se-	.	.
.	.	.	.	2f\	-cun-	2r	.
.	.	.	.	2d\	-dum	2dd\	se-
=151	=151	=151	=151	=151	=151	=151	=151
0r	.	0r	.	2e\	Scri-	2cc\	-cun-
.	.	.	.	2f\	-ptu-	2a/	-dum
.	.	.	.	1g	-ras,	2.b\	Scri-
.	.	.	.	.	.	4cc\	.
=152	=152	=152	=152	=152	=152	=152	=152
0r	.	0r	.	2r	.	1.dd	.
.	.	.	.	2.G/	[se-	.	.
.	.	.	.	4A/	.	.	.
.	.	.	.	4B\	.	4cc\	.
.	.	.	.	4c\	.	4b\	.
=153	=153	=153	=153	=153	=153	=153	=153
0r	.	0r	.	4d\	.	1a	-ptu-
.	.	.	.	4e\	.	.	.
.	.	.	.	4f\	.	.	.
.	.	.	.	4d\	.	.	.
.	.	.	.	2.e\	-cun-	2g/	-ras,
.	.	.	.	.	.	2cc\	Scri-
.	.	.	.	4f\	.	.	.
=154	=154	=154	=154	=154	=154	=154	=154
0r	.	0r	.	2g\	.	2b\	-ptu-
.	.	.	.	2.f\	.	1a	.
.	.	.	.	4e\	.	.	.
.	.	.	.	[2e\	.	2g/	.
=155	=155	=155	=155	=155	=155	=155	=155
0r	.	0r	.	2e\]	.	1f	.
.	.	.	.	2d\	.	.	.
.	.	.	.	[1e	-dum]	1e	-ras,
=156	=156	=156	=156	=156	=156	=156	=156
0r	.	0r	.	1e]	.	2r	.
.	.	.	.	.	.	2c/	[Scri-
.	.	.	.	2r	.	2.e/	-ptu-
.	.	.	.	2c\	[Scri-	.	.
.	.	.	.	.	.	4f/	.
=157	=157	=157	=157	=157	=157	=157	=157
0r	.	0r	.	2.e\	-ptu-	1g	-ras.]
.	.	.	.	4f\	.	.	.
.	.	.	.	1g	-ras.]	2r	.
.	.	.	.	.	.	2c/	Et
=158	=158	=158	=158	=158	=158	=158	=158
0r	.	0r	.	2r	.	2.e/	a-
.	.	.	.	2c\	Et	.	.
.	.	.	.	.	.	4f/	.
.	.	.	.	2.e\	a-	2g/	.
.	.	.	.	.	.	2a/	.
.	.	.	.	4f\	.	.	.
=159	=159	=159	=159	=159	=159	=159	=159
0r	.	0r	.	2g\	.	2b\	-scen-
.	.	.	.	2e\	.	2cc\	-dit
.	.	.	.	2f\	-scen-	2dd\	in
.	.	.	.	2g\	-dit	2ee\	.
=160	=160	=160	=160	=160	=160	=160	=160
0r	.	0r	.	4a\	in	2ff\	cae-
.	.	.	.	4g\	.	.	.
.	.	.	.	4f\	.	1ee	.
.	.	.	.	4e\	.	.	.
.	.	.	.	1f	cae-	.	.
.	.	.	.	.	.	2dd\	.
=161	=161	=161	=161	=161	=161	=161	=161
1r	.	1r	.	1e	-lum:	1ee	-lum:
2r	.	2r	.	2r	.	2r	.
[2C/	Se-	[2c\	Se-	[2g\	se-	[2ee\	se-
=162	=162	=162	=162	=162	=162	=162	=162
2C/]	.	2c\]	.	1g]	.	2ee\]	.
2C/	-det	2c\	-det	.	.	2ee\	-det
2G\	ad	2B\	ad	2g\	-det	2dd\	ad
2E\	dex-	2G/	.	2g\	ad	2cc\	.
=163	=163	=163	=163	=163	=163	=163	=163
1D	-te-	2A/	dex-	2f\	dex-	1ff	dex-
.	.	2B\	-te-	2d\	-te-	.	.
1C	-ram	[1c	-ram	1g	-ram	2.ee\	-te-
.	.	.	.	.	.	4dd\	.
=164	=164	=164	=164	=164	=164	=164	=164
0F	Pa-	1c]	.	0f	Pa-	2cc\	.
.	.	.	.	.	.	2b\	-ram
.	.	1c	Pa-	.	.	1a	Pa-
=165	=165	=165	=165	=165	=165	=165	=165
0Cl	-tris.	0cl	-tris.	0el	-tris.	0gl	-tris.
!!LO:LB:i:g=z
=||	=||	=||	=||	=||	=||	=||	=||
*>E	*>E	*>E	*>E	*>E	*>E	*>E	*>E
*clefF4	*	*clefGv2	*	*clefGv2	*	*clefG2	*
*k[]	*	*k[]	*	*k[]	*	*k[]	*
*M2/1	*	*M2/1	*	*M2/1	*	*M2/1	*
*met(C|)	*	*met(C|)	*	*met(C|)	*	*met(C|)	*
!!section: Et iterum
!!!OMD: Et iterum
0r	.	0r	.	0g	Et	0r	.
=166	=166	=166	=166	=166	=166	=166	=166
0r	.	0r	.	1a	i-	0r	.
.	.	.	.	1f	-te-	.	.
=167	=167	=167	=167	=167	=167	=167	=167
0G	Et	0r	.	2.g\	-rum	0r	.
.	.	.	.	4f\	.	.	.
.	.	.	.	2d\	.	.	.
.	.	.	.	[2e\	ven-	.	.
=168	=168	=168	=168	=168	=168	=168	=168
1A	i-	0r	.	4e\]	.	0r	.
.	.	.	.	4d\	.	.	.
.	.	.	.	2.f\	.	.	.
1F	-te-	.	.	.	.	.	.
.	.	.	.	4e\	.	.	.
.	.	.	.	4d\	.	.	.
.	.	.	.	4c\	.	.	.
=169	=169	=169	=169	=169	=169	=169	=169
1G	-rum	0d	Et	2B\	.	0r	.
.	.	.	.	2G/	.	.	.
2F\	ven-	.	.	2A/	-tu-	.	.
[2G\	-tu-	.	.	[2B\	.	.	.
=170	=170	=170	=170	=170	=170	=170	=170
4G\]	.	1e	i-	4B\]	.	0r	.
4F\	.	.	.	4A/	.	.	.
4E\	.	.	.	1A	.	.	.
4D\	.	.	.	.	.	.	.
1E	.	1c	-te-	.	.	.	.
.	.	.	.	2G/	.	.	.
=171	=171	=171	=171	=171	=171	=171	=171
2D\	.	0d	-rum	2A/	.	0r	.
2.G\	.	.	.	2.B\	.	.	.
4A\	.	.	.	4G/	.	.	.
4B\	.	.	.	[2G/	.	.	.
4c\	.	.	.	.	.	.	.
=172	=172	=172	=172	=172	=172	=172	=172
2d\	.	1r	.	4G/]	.	0r	.
.	.	.	.	4A/	.	.	.
2.G\	.	.	.	4B\	.	.	.
.	.	.	.	4c\	.	.	.
.	.	1d	ven-	2d\	-rus	.	.
4F\	.	.	.	.	.	.	.
[2G\	.	.	.	2G/	[est,]	.	.
=173	=173	=173	=173	=173	=173	=173	=173
4G\]	.	1e	-tu-	2r	.	0r	.
4F\	.	.	.	.	.	.	.
4E\	.	.	.	1g	[ven-	.	.
4D\	.	.	.	.	.	.	.
2E\	.	1c	.	.	.	.	.
[2F\	.	.	.	[2a\	-tu-	.	.
=174	=174	=174	=174	=174	=174	=174	=174
4F\]	.	1d	.	4a\]	.	0r	.
4D\	.	.	.	4g\	.	.	.
2D\	.	.	.	4f\	.	.	.
.	.	.	.	4e\	.	.	.
2G\	.	2B\	.	2d\	.	.	.
[2F\	.	[2c\	.	[2a\	.	.	.
=175	=175	=175	=175	=175	=175	=175	=175
4F\]	.	4c\]	.	4a\]	.	0r	.
4G\	.	4B\	.	4g\	.	.	.
2E\	-rus	4A/	.	1g	.	.	.
.	.	4G/	.	.	.	.	.
1D	est	1A	-rus	.	.	.	.
.	.	.	.	2f#i\	-rus	.	.
=176	=176	=176	=176	=176	=176	=176	=176
2r	.	0G	est	[0g	est,]	0r	.
2.C/	cum	.	.	.	.	.	.
4D\	.	.	.	.	.	.	.
4E\	.	.	.	.	.	.	.
4F\	.	.	.	.	.	.	.
=177	=177	=177	=177	=177	=177	=177	=177
2G\	.	2r	.	0g]	.	0r	.
2C/	glo-	2.G/	cum	.	.	.	.
2.G\	.	.	.	.	.	.	.
.	.	4A/	.	.	.	.	.
.	.	4B\	.	.	.	.	.
4A\	.	4c\	.	.	.	.	.
=178	=178	=178	=178	=178	=178	=178	=178
4B\	.	2d\	.	0r	.	0r	.
4c\	.	.	.	.	.	.	.
2d\	.	4G/	glo-	.	.	.	.
.	.	4A/	.	.	.	.	.
2.G\	.	4B\	.	.	.	.	.
.	.	4c\	.	.	.	.	.
.	.	[2d\	.	.	.	.	.
4F\	.	.	.	.	.	.	.
=179	=179	=179	=179	=179	=179	=179	=179
2E\	.	4d\]	.	0r	.	0r	.
.	.	4c\	.	.	.	.	.
4D\	.	1c	.	.	.	.	.
4C/	.	.	.	.	.	.	.
1D	-ri-	.	.	.	.	.	.
.	.	2B\	-ri	.	.	.	.
=180	=180	=180	=180	=180	=180	=180	=180
1C	-a,	2.c\	a,	0g	iu-	0r	.
.	.	4d\	.	.	.	.	.
2r	.	2e\	.	.	.	.	.
2c\	iu-	2c\	iu-	.	.	.	.
=181	=181	=181	=181	=181	=181	=181	=181
2B\	-di-	2d\	-di-	1g	-di-	0r	.
2.c\	-ca-	2.e\	-ca-	.	.	.	.
.	.	.	.	1g	-ca-	.	.
4B\	.	4d\	.	.	.	.	.
2G\	-re	2B\	.	.	.	.	.
=182	=182	=182	=182	=182	=182	=182	=182
2.A\	vi-	2c\	.	0e	-re	0r	.
.	.	2A/	.	.	.	.	.
4G\	.	.	.	.	.	.	.
2E\	-vos	2B\	.	.	.	.	.
2A\	et	2c\	.	.	.	.	.
=183	=183	=183	=183	=183	=183	=183	=183
2G\	mor-	2B\	.	0e	vi-	0r	.
2.A\	.	2.c\	.	.	.	.	.
4G\	.	4B\	.	.	.	.	.
2E\	.	2G/	.	.	.	.	.
=184	=184	=184	=184	=184	=184	=184	=184
2.F\	.	2A/	.	2.c\	-vos	0r	.
.	.	2F/	.	.	.	.	.
4E\	.	.	.	4d\	.	.	.
4C/	.	2.G/	.	4e\	.	.	.
4D\	.	.	.	4f\	.	.	.
4E\	.	.	.	[2g\	.	.	.
4F\	.	4A/	.	.	.	.	.
=185	=185	=185	=185	=185	=185	=185	=185
2G\	.	2B\	.	2g\]	.	0r	.
2A\	.	2c\	.	1f	et	.	.
2E\	.	1G	-re	.	.	.	.
2G\	.	.	.	[2e\	mor-	.	.
=186	=186	=186	=186	=186	=186	=186	=186
1F	-tu-	2r	.	2e\]	.	0r	.
.	.	2A/	vi-	2d\	-tu-	.	.
1E	-os:	2B\	.	1e	-os:	.	.
.	.	[2c\	.	.	.	.	.
=187	=187	=187	=187	=187	=187	=187	=187
2r	.	4c\]	.	1g	cu-	0r	.
.	.	4d\	.	.	.	.	.
1c	cu-	1e	-vos	.	.	.	.
.	.	.	.	2e\	-ius	.	.
2A\	-ius	2c\	et	[2f\	re-	.	.
=188	=188	=188	=188	=188	=188	=188	=188
2.B\	re-	2.d\	mor-	4f\]	.	0r	.
.	.	.	.	4d\	.	.	.
.	.	.	.	2d\	.	.	.
4G\	.	4B\	.	.	.	.	.
2G\	-gni	2B\	.	1e	-gni	.	.
[2A\	non	[2c\	.	.	.	.	.
=189	=189	=189	=189	=189	=189	=189	=189
2A\]	.	2c\]	.	2c\	non	0r	.
2F\	.	2A/	.	2.d\	e-	.	.
2.G\	e	2.B\	.	.	.	.	.
.	.	.	.	4B\	.	.	.
.	.	.	.	2B\	-rit	.	.
4E\	.	4G/	.	.	.	.	.
=190	=190	=190	=190	=190	=190	=190	=190
2E\	rit	2G/	.	1c	fi-	0r	.
1F	fi-	1A	.	.	.	.	.
.	.	.	.	2A/	.	.	.
2D\	.	2F/	-tu-	[2B\	.	.	.
=191	=191	=191	=191	=191	=191	=191	=191
2.E\	.	2G/	-os:	4B\]	.	0r	.
.	.	.	.	4G/	.	.	.
.	.	2.c\	cu-	2G/	-nis,	.	.
4C/	.	.	.	.	.	.	.
2.C/	.	.	.	2r	.	.	.
.	.	4d\	.	.	.	.	.
.	.	4e\	.	[2G/	non	.	.
4D\	.	4f\	.	.	.	.	.
=192	=192	=192	=192	=192	=192	=192	=192
4E\	.	2e\	.	4G/]	.	0r	.
4F\	.	.	.	4A/	.	.	.
4G\	.	1d	-ius	4B\	.	.	.
4E\	.	.	.	4c\	.	.	.
4F\	.	.	.	2d\	.	.	.
4E\	.	.	.	.	.	.	.
4D\	.	[2c\	re-	2e\	.	.	.
4C/	.	.	.	.	.	.	.
=193	=193	=193	=193	=193	=193	=193	=193
1D	-nis,	2c\]	.	2f\	e-	0r	.
.	.	2B\	-gni	4e\	.	.	.
.	.	.	.	4d\	.	.	.
2C/	non	2c\	non	2e\	-rit	.	.
[2c\	e-	[2e\	e-	4c\	fi-	.	.
.	.	.	.	4d\	.	.	.
=194	=194	=194	=194	=194	=194	=194	=194
2c\]	.	2e\]	.	4e\	.	0r	.
.	.	.	.	4f\	.	.	.
2B\	-rit	2d\	-rit	4g\	.	.	.
.	.	.	.	4e\	.	.	.
2A\	fi-	2c\	fi-	2f\	.	.	.
2G\	.	2B\	.	2e\	.	.	.
=195	=195	=195	=195	=195	=195	=195	=195
2F\	.	2A/	.	4d\	.	0r	.
.	.	.	.	4c\	.	.	.
2E\	.	1G	.	1c	.	.	.
1D	.	.	.	.	.	.	.
.	.	2F/	.	2B\	.	.	.
=196	=196	=196	=196	=196	=196	=196	=196
0Cl	-nis.	0Gl	-nis.	0cl	-nis.	0r	.
!!LO:LB:i:g=z
=||	=||	=||	=||	=||	=||	=||	=||
*>F	*>F	*>F	*>F	*>F	*>F	*>F	*>F
*clefF4	*	*clefGv2	*	*clefGv2	*	*clefG2	*
*k[]	*	*k[]	*	*k[]	*	*k[]	*
*M2/1	*	*M2/1	*	*M2/1	*	*M2/1	*
*met(C|)	*	*met(C|)	*	*met(C|)	*	*met(C|)	*
!!section: Et in spiritum
!!!OMD: Et in spiritum
0r	.	0r	.	1r	.	1g	Et
.	.	.	.	1c	Et	2g/	in
.	.	.	.	.	.	[2cc\	Spi-
=197	=197	=197	=197	=197	=197	=197	=197
0r	.	0r	.	2c\	in	2cc\]	.
.	.	.	.	1f	Spi-	2cc\	-ri-
.	.	.	.	.	.	2dd\	-tum
.	.	.	.	2f\	-ri-	4cc\	.
.	.	.	.	.	.	4dd\	.
=198	=198	=198	=198	=198	=198	=198	=198
0r	.	0r	.	1g	-tum	2.ee\	.
.	.	.	.	.	.	4dd\	.
.	.	.	.	2.a\	.	4cc\	.
.	.	.	.	.	.	4b\	.
.	.	.	.	.	.	[2ff\	.
.	.	.	.	4g\	.	.	.
=199	=199	=199	=199	=199	=199	=199	=199
0r	.	0r	.	2g\	.	4ff\]	.
.	.	.	.	.	.	4ee\	.
.	.	.	.	2e\	.	1ee	.
.	.	.	.	1f	.	.	.
.	.	.	.	.	.	2dd\	.
=200	=200	=200	=200	=200	=200	=200	=200
1r	.	1G	San-	0e	.	0ee	.
1C	San-	2G/	-ctum,	.	.	.	.
.	.	[2c\	Do-	.	.	.	.
=201	=201	=201	=201	=201	=201	=201	=201
2C/	-ctum,	2c\]	.	0r	.	0r	.
1F	Do-	2c\	-mi-	.	.	.	.
.	.	2.d\	.	.	.	.	.
2F\	-mi-	.	.	.	.	.	.
.	.	8c\L	.	.	.	.	.
.	.	8d\J	.	.	.	.	.
=202	=202	=202	=202	=202	=202	=202	=202
2G\	.	2.e\	.	0r	.	0r	.
4F\	.	.	.	.	.	.	.
4G\	.	4d\	.	.	.	.	.
1A	.	2c\	.	.	.	.	.
.	.	[2f\	.	.	.	.	.
=203	=203	=203	=203	=203	=203	=203	=203
2G\	.	4f\]	.	0r	.	0r	.
.	.	4e\	.	.	.	.	.
2E\	.	1e	.	.	.	.	.
1F	.	.	.	.	.	.	.
.	.	2d\	.	.	.	.	.
=204	=204	=204	=204	=204	=204	=204	=204
1E	-num,	1e	-num,	2r	.	2r	.
.	.	.	.	2c\	et	2ee\	et
1r	.	1r	.	2g\	vi-	2dd\	vi-
.	.	.	.	2g\	-vi-	2ee\	-vi-
=205	=205	=205	=205	=205	=205	=205	=205
0r	.	0r	.	4a\	-fi-	2ff\	-fi-
.	.	.	.	4g\	.	.	.
.	.	.	.	4f\	.	2ee\	.
.	.	.	.	4e\	.	.	.
.	.	.	.	1f	-can-	2ee\	-can-
.	.	.	.	.	.	2dd\	.
=206	=206	=206	=206	=206	=206	=206	=206
2r	.	2r	.	1e	-tem:	1ee	-tem:
2C/	et	2e\	et	.	.	.	.
2G\	vi-	2d\	vi-	1r	.	1r	.
2G\	-vi-	2e\	-vi-	.	.	.	.
=207	=207	=207	=207	=207	=207	=207	=207
4A\	-fi-	2f\	-fi-	0r	.	0r	.
4G\	.	.	.	.	.	.	.
4F\	.	1e	-can-	.	.	.	.
4E\	.	.	.	.	.	.	.
1F	-can-	.	.	.	.	.	.
.	.	2d\	.	.	.	.	.
=208	=208	=208	=208	=208	=208	=208	=208
1E	-tem:	1e	-tem:	1r	.	1r	.
2r	.	2r	.	2r	.	2r	.
2C/	qui	2e\	qui	2g\	qui	2ee\	qui
=209	=209	=209	=209	=209	=209	=209	=209
2C/	ex	2e\	ex	2g\	ex	2ee\	ex
2C/	Pa-	2e\	Pa-	2g\	Pa-	2ee\	Pa-
[1C	-tre	[1c	-tre	[1g	-tre	[1ee	-tre
=210	=210	=210	=210	=210	=210	=210	=210
2C/]	.	2c\]	.	2g\]	.	2ee\]	.
2G\	Fi-	4B\	.	2g\	Fi-	1dd	Fi-
.	.	4A/	.	.	.	.	.
2G\	-li-	2d\	Fi-	2g\	-li-	.	.
2G\	-o-	2d\	-li-	2g\	-o-	2b\	-li-
=211	=211	=211	=211	=211	=211	=211	=211
1A	-que	1c	-o-	2.e\	-que	2.cc\	-o-
.	.	.	.	4f\	.	4a/	.
1G	pro-	2d\	-que	4g\	.	4b\	.
.	.	.	.	4a\	.	4cc\	.
.	.	2B\	pro-	[2g\	.	[2dd\	.
=212	=212	=212	=212	=212	=212	=212	=212
1A	.	1c	-ce-	2g\]	.	2dd\]	.
.	.	.	.	2f\	pro-	2cc\	-que
2G\	-ce-	2.d\	.	2g\	-ce-	2b\	pro-
2D\	.	.	.	2f\	.	[2a/	-ce-
.	.	4c\	.	.	.	.	.
=213	=213	=213	=213	=213	=213	=213	=213
2G\	.	2B\	.	2e\	.	4a/]	.
.	.	.	.	.	.	4g/	.
2E\	.	4A/	.	2c\	.	1g	.
.	.	4G/	.	.	.	.	.
1D	-dit.	1A	-dit.	1d	.	.	.
.	.	.	.	.	.	2f#i/	.
=214	=214	=214	=214	=214	=214	=214	=214
2r	.	2r	.	1B	-dit.	1g	-dit.
2E\	Qui	2G/	Qui	.	.	.	.
2F\	cum	2A/	cum	1r	.	1r	.
2D\	Pa-	2B\	Pa-	.	.	.	.
=215	=215	=215	=215	=215	=215	=215	=215
1C	-tre	1c	-tre	2r	.	2r	.
.	.	.	.	2e\	Et	2g/	Et
1r	.	1r	.	2f\	Fi-	2a/	Fi-
.	.	.	.	2d\	-li-	2b\	-li-
=216	=216	=216	=216	=216	=216	=216	=216
2r	.	2r	.	2c\	-o	2cc\	-o
1C	si-	1c	si-	1e	si-	1cc	si-
2C/	-mul	2c\	-mul	2e\	-mul	2cc\	-mul
=217	=217	=217	=217	=217	=217	=217	=217
2F\	a-	2c\	a-	1f	a-	2cc\	a-
2F\	-do-	2c\	-do-	.	.	2cc\	-do-
1A	-ra-	1c	-ra-	2e\	-do-	1cc	-ra-
.	.	.	.	2f\	-ra-	.	.
=218	=218	=218	=218	=218	=218	=218	=218
2G\	-tur,	2d\	-tur,	2g\	-tur,	2b\	-tur,
1G	et	1d	et	1g	et	1dd	et
2G\	con-	2d\	con-	2g\	con-	2dd\	con-
=219	=219	=219	=219	=219	=219	=219	=219
2B\	-glo-	2d\	-glo-	2f\	-glo-	2dd\	-glo-
2B\	-ri-	2G/	-ri-	2d\	-ri-	2dd\	-ri-
2A\	-fi-	2c\	-fi-	2e\	-fi-	2cc\	-fi-
2A\	-ca-	2c\	-ca-	2f\	-ca-	2a/	-ca-
=220	=220	=220	=220	=220	=220	=220	=220
1G	-tur:	1d	-tur:	2.g\	-tur:	2.b\	-tur:
.	.	.	.	4f\	.	4cc\	.
1r	.	1r	.	2d\	.	4dd\	.
.	.	.	.	.	.	4b\	.
.	.	.	.	[2a\	qui	[2cc\	.
=221	=221	=221	=221	=221	=221	=221	=221
0r	.	0r	.	4a\]	.	4cc\]	.
.	.	.	.	4g\	.	4b\	.
.	.	.	.	1g	.	4a/	.
.	.	.	.	.	.	4g/	.
.	.	.	.	.	.	1a	.
.	.	.	.	2f#i\	lo-	.	.
=222	=222	=222	=222	=222	=222	=222	=222
0r	.	2r	.	2.g\	-cu-	[0g	.
.	.	1G	qui	.	.	.	.
.	.	.	.	4f\	.	.	.
.	.	.	.	2d\	.	.	.
.	.	2G/	lo-	[2e\	.	.	.
=223	=223	=223	=223	=223	=223	=223	=223
0r	.	1c	-cu-	4e\]	.	0g]	.
.	.	.	.	4d\	.	.	.
.	.	.	.	1c	.	.	.
.	.	1d	-tus	.	.	.	.
.	.	.	.	2B\	-tus	.	.
=224	=224	=224	=224	=224	=224	=224	=224
2r	.	1e	est	2.c\	est	2r	.
2C/	qui	.	.	.	.	1g	qui
.	.	.	.	4B\	.	.	.
1G	lo-	2d\	.	2G/	.	.	.
.	.	[2e\	.	[2g\	per	2g/	lo-
=225	=225	=225	=225	=225	=225	=225	=225
2E\	-cu-	4e\]	.	2g\]	.	1cc	-cu-
.	.	4d\	.	.	.	.	.
2F\	-tus	1c	.	1a	Pro-	.	.
1D	est	.	.	.	.	1dd	-tus
.	.	2B\	.	4g\	.	.	.
.	.	.	.	4f\	.	.	.
=226	=226	=226	=226	=226	=226	=226	=226
4C/	per	2c\	.	1.g	.	1ee	est
4D\	.	.	.	.	.	.	.
4E\	.	4G/	per	.	.	.	.
4F\	.	4A/	.	.	.	.	.
2G\	.	4B\	.	.	.	2dd\	per
.	.	4c\	.	.	.	.	.
2F\	Pro-	4d\	.	2c\	.	[2ff\	Pro-
.	.	4e\	.	.	.	.	.
=227	=227	=227	=227	=227	=227	=227	=227
2D\	-phe-	2f\	.	2.d\	-phe-	4ff\]	.
.	.	.	.	.	.	4ee\	.
1G	.	2.g\	Pro-	.	.	4dd\	.
.	.	.	.	4G/	.	4cc\	.
.	.	.	.	2G/	.	2dd\	.
.	.	4f\	.	.	.	.	.
2G\	.	4e\	.	[2g\	.	[2ee\	-phe-
.	.	4d\	.	.	.	.	.
=228	=228	=228	=228	=228	=228	=228	=228
1A	.	1c	-phe-	2g\]	.	4ee\]	.
.	.	.	.	.	.	4dd\	.
.	.	.	.	2f\	.	1cc	.
1G	.	1d	.	1g	.	.	.
.	.	.	.	.	.	2b\	.
=229	=229	=229	=229	=229	=229	=229	=229
[0C	-tas.	[0c	-tas.	0e	-tas.	1cc	-tas.
.	.	.	.	.	.	1r	.
=230	=230	=230	=230	=230	=230	=230	=230
0C]	.	0c]	.	0r	.	1cc	Et
.	.	.	.	.	.	2cc\	u-
.	.	.	.	.	.	2cc\	-nam
=231	=231	=231	=231	=231	=231	=231	=231
0r	.	0r	.	1c	Et	2.gg\	san-
.	.	.	.	.	.	4ff\	.
.	.	.	.	2c\	u-	4ee\	.
.	.	.	.	.	.	4dd\	.
.	.	.	.	2c\	-nam	[2ee\	.
=232	=232	=232	=232	=232	=232	=232	=232
0r	.	0r	.	1.g	san-	2ee\]	.
.	.	.	.	.	.	4dd\	.
.	.	.	.	.	.	4cc\	.
.	.	.	.	.	.	4b\	.
.	.	.	.	.	.	4a/	.
.	.	.	.	[2a\	.	[2cc\	.
=233	=233	=233	=233	=233	=233	=233	=233
0r	.	0r	.	4a\]	.	2cc\]	.
.	.	.	.	4g\	.	.	.
.	.	.	.	1g	-ctam	2b\	.
.	.	.	.	.	.	1a	.
.	.	.	.	2f#i\	ca-	.	.
=234	=234	=234	=234	=234	=234	=234	=234
0r	.	1c	Et	2g\	-tho-	0g	-ctam
.	.	.	.	4c\	.	.	.
.	.	.	.	4d\	.	.	.
.	.	2c\	u-	4e\	.	.	.
.	.	.	.	4f\	.	.	.
.	.	2c\	-nam	[2g\	.	.	.
=235	=235	=235	=235	=235	=235	=235	=235
1C	[Et	2.g\	san-	4g\]	.	0r	.
.	.	.	.	4f\	.	.	.
.	.	.	.	1e	-li-	.	.
.	.	4f\	.	.	.	.	.
2C/	u-	4e\	.	.	.	.	.
.	.	4d\	.	.	.	.	.
2C/	-nam	[2e\	-ctam	4d\	.	.	.
.	.	.	.	4c\	.	.	.
=236	=236	=236	=236	=236	=236	=236	=236
1G	san-	2e\]	.	1B	-cam	0r	.
.	.	4d\	.	.	.	.	.
.	.	4c\	.	.	.	.	.
2G\	-ctam]	4B\	.	1r	.	.	.
.	.	4A/	.	.	.	.	.
[2A\	ca-	[2c\	ca-	.	.	.	.
=237	=237	=237	=237	=237	=237	=237	=237
2A\]	.	2c\]	.	0r	.	0r	.
1G	-tho-	2B\	-tho-	.	.	.	.
.	.	1A	-li-	.	.	.	.
2F#i\	-li-	.	.	.	.	.	.
=238	=238	=238	=238	=238	=238	=238	=238
1G	-cam	1G	-cam	1r	.	1r	.
2r	.	2r	.	2r	.	2r	.
2G\	et	2d\	et	2g\	et	2b\	et
=239	=239	=239	=239	=239	=239	=239	=239
2G\	a-	2d\	a-	2g\	a-	2b\	a-
2G\	-po-	2d\	-po-	2g\	-po-	2b\	-po-
2G\	-sto-	2d\	-sto-	2g\	-sto-	2b\	-sto-
2G\	-li-	2d\	-li-	2g\	-li-	2b\	-li-
=240	=240	=240	=240	=240	=240	=240	=240
0C	-cam.	1.c	-cam	0e	-cam.	2.cc\	-cam
.	.	.	.	.	.	4b\	.
.	.	.	.	.	.	2a/	.
.	.	2B\	Ec-	.	.	2g/	Ec-
=241	=241	=241	=241	=241	=241	=241	=241
0r	.	2A/	-cle-	0r	.	2cc\	-cle-
.	.	2G/	.	.	.	2dd\	.
.	.	2c\	.	.	.	2ee\	.
.	.	2d\	.	.	.	[2ff\	.
=242	=242	=242	=242	=242	=242	=242	=242
0r	.	1e	.	0r	.	4ff\]	.
.	.	.	.	.	.	4ee\	.
.	.	.	.	.	.	1ee	.
.	.	1f	-si-	.	.	.	.
.	.	.	.	.	.	2dd\	-si-
=243	=243	=243	=243	=243	=243	=243	=243
0r	.	0e	-am.	1c	Con-	0ee	-am.
.	.	.	.	2c\	-fi-	.	.
.	.	.	.	2c\	-te-	.	.
=244	=244	=244	=244	=244	=244	=244	=244
1C	Con-	0r	.	2.g\	-or	0r	.
.	.	.	.	4f\	.	.	.
2C/	-fi-	.	.	4e\	.	.	.
.	.	.	.	4d\	.	.	.
2C/	-te-	.	.	[2e\	u-	.	.
=245	=245	=245	=245	=245	=245	=245	=245
1G	-or	0r	.	2e\]	.	0r	.
.	.	.	.	4d\	.	.	.
.	.	.	.	4c\	.	.	.
2G\	u-	.	.	4B\	.	.	.
.	.	.	.	4A/	.	.	.
[2A\	-num	.	.	[2c\	-num	.	.
=246	=246	=246	=246	=246	=246	=246	=246
2A\]	.	0r	.	2c\]	.	0r	.
1G	ba-	.	.	2B\	ba-	.	.
.	.	.	.	1A	-pti-	.	.
2F#i\	-pti-	.	.	.	.	.	.
=247	=247	=247	=247	=247	=247	=247	=247
1G	-sma	1r	.	1G	-sma	1r	.
2r	.	2r	.	2r	.	2r	.
2G\	in	2d\	In	2g\	in	2b\	In
=248	=248	=248	=248	=248	=248	=248	=248
2G\	re-	2d\	re-	2g\	re-	2b\	re-
2G\	-mis-	2d\	-mis-	2g\	-mis-	2b\	-mis-
2G\	-si-	2d\	-si-	2g\	-si-	2b\	-si-
2G\	-o-	2d\	-o-	2g\	-o-	2b\	-o-
=249	=249	=249	=249	=249	=249	=249	=249
0C	-nem.	1.c	-nem	0e	-nem.	2.cc\	-nem
.	.	.	.	.	.	4b\	.
.	.	.	.	.	.	2a/	.
.	.	2B\	pec-	.	.	2g/	pec-
=250	=250	=250	=250	=250	=250	=250	=250
0r	.	2A/	-ca-	0r	.	2cc\	-ca-
.	.	2G/	-to-	.	.	2dd\	-to-
.	.	2c\	.	.	.	2ee\	.
.	.	2d\	.	.	.	[2ff\	.
=251	=251	=251	=251	=251	=251	=251	=251
0r	.	1e	.	0r	.	4ff\]	.
.	.	.	.	.	.	4ee\	.
.	.	.	.	.	.	1ee	.
.	.	1f	.	.	.	.	.
.	.	.	.	.	.	2dd\	.
=	=	=	=	=	=	=	=
*M3/1	*	*M3/1	*	*M3/1	*	*M3/1	*
*met(3)	*	*met(3)	*	*met(3)	*	*met(3)	*
0.r	.	0e	-rum.	0.r	.	0ee	-rum.
.	.	1r	.	.	.	1r	.
=252	=252	=252	=252	=252	=252	=252	=252
1C	Et	1c	Et	1g	Et	1ee	Et
1C	ex-	1c	ex-	1g	ex-	1ee	ex-
1C	-pe-	1c	-pe-	1g	-pe-	1ee	-pe-
=253	=253	=253	=253	=253	=253	=253	=253
1.G	.	0.d	.	1g	-cto	1.dd	.
.	.	.	.	1d	.	.	.
2A\	.	.	.	.	.	2cc\	.
1B	.	.	.	[1g	.	2b\	.
.	.	.	.	.	.	2a/	.
=254	=254	=254	=254	=254	=254	=254	=254
0c	-cto	0e	-cto	2g\]	.	0g	-cto
.	.	.	.	2f\	.	.	.
.	.	.	.	2e\	.	.	.
.	.	.	.	2d\	.	.	.
1r	.	1r	.	1c	.	1r	.
=255	=255	=255	=255	=255	=255	=255	=255
1C	re-	1c	re-	1g	re-	1ee	re-
1C	-sur-	1c	-sur-	1g	-sur-	1ee	-sur-
1C	-re-	1c	-re-	1g	-re-	1ee	-re-
=256	=256	=256	=256	=256	=256	=256	=256
1.G	-cti-	0d	-cti-	1g	-cti-	1.dd	-cti-
.	.	.	.	1d	-o-	.	.
2A\	.	.	.	.	.	2cc\	-o-
1B	.	1d	-o-	[1g	-nem	2b\	.
.	.	.	.	.	.	2a/	.
=257	=257	=257	=257	=257	=257	=257	=257
1.c	-o-	0e	-nem	2g\]	.	0g	-nem
.	.	.	.	2f\	.	.	.
.	.	.	.	2e\	.	.	.
2B\	.	.	.	2d\	.	.	.
1G	.	1e	mor-	[1e	.	1g	mor-
=258	=258	=258	=258	=258	=258	=258	=258
1.A	.	0c	-tu-	2e\]	.	1e	-tu-
.	.	.	.	2d\	.	.	.
.	.	.	.	2c\	.	1.a	-o-
2G\	.	.	.	2B\	.	.	.
2F\	.	1c	-o-	[1A	.	.	.
2E\	.	.	.	.	.	2g/	.
=259	=259	=259	=259	=259	=259	=259	=259
0D	-nem	0f	.	1A]	.	2f/	.
.	.	.	.	.	.	2e/	.
.	.	.	.	1.a	.	0d	.
[1d	mor-	1f	.	.	.	.	.
.	.	.	.	2g\	.	.	.
=260	=260	=260	=260	=260	=260	=260	=260
2d\]	.	0d	.	2f\	.	1.dd	.
2c\	.	.	.	2e\	.	.	.
2B\	.	.	.	1.d	.	.	.
2A\	.	.	.	.	.	2cc\	.
[1G	-tu-	1d	-rum,	.	.	2b\	.
.	.	.	.	2c\	.	2a/	.
=261	=261	=261	=261	=261	=261	=261	=261
2G\]	.	1.g	[mor-	2B\	.	1g	.
2F\	.	.	.	2A/	.	.	.
2E\	.	.	.	0G	.	1.g	.
2D\	.	2f\	.	.	.	.	.
[1C	-o-	2e\	.	.	.	.	.
.	.	2d\	.	.	.	2f/	.
=262	=262	=262	=262	=262	=262	=262	=262
1C]	.	0c	-tu-	1.g	.	2e/	.
.	.	.	.	.	.	2d/	.
1.c	.	.	.	.	.	1c	.
.	.	.	.	2f\	.	.	.
.	.	1c	-o-	2e\	.	[1cc	.
2B\	.	.	.	2d\	.	.	.
=263	=263	=263	=263	=263	=263	=263	=263
2A\	.	0f	.	1.c	.	2cc\]	.
2G\	.	.	.	.	.	2b\	.
1F	.	.	.	.	.	1a	.
.	.	.	.	2B\	.	.	.
[1A	.	1e	.	1A	mor-	[1cc	.
=264	=264	=264	=264	=264	=264	=264	=264
1A]	.	1f	.	1c	-tu-	1cc]	.
1G	.	1g	.	1d	-o-	1b	.
1A	.	1e	.	[1c	.	2.a/	.
.	.	.	.	.	.	4g/	.
=265	=265	=265	=265	=265	=265	=265	=265
1F	.	1f	.	1c]	.	1.cc	.
0G	.	0d	.	0g	.	.	.
.	.	.	.	.	.	4b\	.
.	.	.	.	.	.	4a/	.
.	.	.	.	.	.	1b	.
=	=	=	=	=	=	=	=
*M2/1	*	*M2/1	*	*M2/1	*	*M2/1	*
*met(C|)	*	*met(C|)	*	*met(C|)	*	*met(C|)	*
1C	-rum.	1c	-rum.]	1e	-rum.	1cc	-rum.
1r	.	1r	.	1r	.	1r	.
=266	=266	=266	=266	=266	=266	=266	=266
0C	Et	0c	Et	0g	Et	0cc	Et
=267	=267	=267	=267	=267	=267	=267	=267
1G	vi-	2.B\	vi-	2.g\	vi-	1dd	vi-
.	.	4A/	.	4f\	.	.	.
2G\	-tam	2B\	.	4e\	.	1ee	-tam
.	.	.	.	4d\	.	.	.
[2A\	ven-	2c\	-tam	2c\	-tam	.	.
=268	=268	=268	=268	=268	=268	=268	=268
4A\]	.	2A/	ven-	2.f\	ven-	1ff	ven-
4G\	.	.	.	.	.	.	.
4F\	.	1c	-tu-	.	.	.	.
4E\	.	.	.	4g\	.	.	.
1D	-tu-	.	.	2a\	-tu-	1ff	-tu-
.	.	2B\	.	2d\	.	.	.
=269	=269	=269	=269	=269	=269	=269	=269
0C	-ri	1c	-ri	2g\	-ri	0ee	-ri
.	.	.	.	2G/	sae-	.	.
.	.	2r	.	2.c\	-cu-	.	.
.	.	2G/	sae-	.	.	.	.
.	.	.	.	4d\	.	.	.
=270	=270	=270	=270	=270	=270	=270	=270
1r	.	2.c\	-cu-	2e\	.	1r	.
.	.	.	.	2c\	-li.	.	.
.	.	4d\	.	.	.	.	.
1c	sae-	2e\	.	2r	.	1ee	sae-
.	.	2c\	-li.	[2e\	A-	.	.
=271	=271	=271	=271	=271	=271	=271	=271
1c	-cu-	2.e\	A-	4e\]	.	1ee	-cu-
.	.	.	.	4f\	.	.	.
.	.	.	.	2.g\	.	.	.
.	.	4f\	.	.	.	.	.
2B\	-li.	[1g	.	.	.	2dd\	-li.
.	.	.	.	4f\	.	.	.
[2c\	A-	.	.	4e\	.	[2ee\	A-
.	.	.	.	4d\	.	.	.
=272	=272	=272	=272	=272	=272	=272	=272
4c\]	.	1g]	.	4e\	.	4ee\]	.
4B\	.	.	.	4f\	.	4dd\	.
4A\	.	.	.	1g	.	4cc\	.
4G\	.	.	.	.	.	4b\	.
1A	.	1c	.	.	.	1cc	.
.	.	.	.	2f#i\	.	.	.
=273	=273	=273	=273	=273	=273	=273	=273
1G	.	1d	.	[0g	.	[0b	.
1E	.	1e	.	.	.	.	.
=274	=274	=274	=274	=274	=274	=274	=274
0G	.	0d	.	0g]	.	0b]	.
=275	=275	=275	=275	=275	=275	=275	=275
0C	.	0c	.	0e	.	0cc	.
=276	=276	=276	=276	=276	=276	=276	=276
0Cl	-men.	0cl	-men.	0gl	-men.	0ccl	-men.
==	==	==	==	==	==	==	==
*-	*-	*-	*-	*-	*-	*-	*-
!!!RDF**kern: l=long note in original notation
!!!RDF**kern: i=editorial accidental
!!!RDF**kern: V=start of tuplet marker
!!!RDF**kern: Z=end of tuplet marker
!!!ENC: Richard Freedman (CRIM)
!!!END: 2016/03/29/
!!!EED: Jesse Rodin
!!!EEV: 2016/03/30/
!!!ONB: Translated from MusicXML and edited on 2016/03/30/ by Craig Sapp
!!muse2ps: T^@{OPR}^u^@{ONM}{. }@{OTL}^C^@{COM}^i2I150v85,85,85,150Q16
